resources/haticons/SVG/work_off.svg

<!-- Generated by IcoMoon.io -->
<svg version="1.1" xmlns="http://www.w3.org/2000/svg" width="24" height="24" viewBox="0 0 24 24">
<title>work_off</title>
<path d="M14.063 6v-2.063h-4.078v2.063h4.078zM21.984 7.969v10.313l-13.922-14.016v-0.328q0-0.844 0.563-1.406t1.406-0.516h4.031q0.844-0.047 1.406 0.516t0.563 1.406v2.063h4.031q0.844-0.047 1.406 0.539t0.516 1.43zM23.016 21.75l-1.266 1.266-2.063-2.063h-15.656q-0.844 0-1.406-0.586t-0.563-1.43v-10.969q0-0.844 0.563-1.43t1.406-0.586h0.656l-2.719-2.719 1.266-1.266z"></path>
</svg>

<svg xmlns="http://www.w3.org/2000/svg" width="24" height="24"><path d="M14.063 6V3.937H9.985V6h4.078zm7.921 1.969v10.313L8.062 4.266v-.328q0-.844.563-1.406t1.406-.516h4.031q.844-.047 1.406.516t.563 1.406v2.063h4.031q.844-.047 1.406.539t.516 1.43zm1.032 13.781l-1.266 1.266-2.063-2.063H4.031q-.844 0-1.406-.586t-.563-1.43V7.968q0-.844.563-1.43t1.406-.586h.656L1.968 3.233l1.266-1.266z"/></svg>
